svgs/duotone/square-terminal.svg

<svg xmlns="http://www.w3.org/2000/svg" viewBox="0 0 448 512"><!--! Font Awesome Pro 6.0.0-alpha3 by @fontawesome - https://fontawesome.com License - https://fontawesome.com/license (Commercial License) --><defs><style>.fa-secondary{opacity:.4}</style></defs><path class="fa-primary" d="M208 256c0-6.719-2.828-13.16-7.781-17.69l-96-88C94.45 141.4 79.27 142 70.31 151.8S62.02 176.8 71.78 185.7L148.5 256l-76.7 70.31c-9.766 8.938-10.42 24.12-1.469 33.91C75.05 365.4 81.52 368 88 368c5.797 0 11.61-2.094 16.22-6.312l96-88C205.2 269.2 208 262.7 208 256zM360 336h-144C202.8 336 192 346.8 192 360S202.8 384 216 384h144c13.25 0 24-10.75 24-24S373.3 336 360 336z"/><path class="fa-secondary" d="M384 32H64C28.65 32 0 60.66 0 96v320c0 35.34 28.65 64 64 64h320c35.35 0 64-28.66 64-64V96C448 60.66 419.3 32 384 32zM88 368c-6.484 0-12.95-2.625-17.69-7.781c-8.953-9.781-8.297-24.97 1.469-33.91L148.5 256L71.78 185.7C62.02 176.8 61.36 161.6 70.31 151.8s24.14-10.41 33.91-1.469l96 88C205.2 242.8 208 249.3 208 256S205.2 269.2 200.2 273.7l-96 88C99.61 365.9 93.8 368 88 368zM360 384h-144C202.8 384 192 373.3 192 360s10.75-24 24-24h144c13.25 0 24 10.75 24 24S373.3 384 360 384z"/></svg>

<svg xmlns="http://www.w3.org/2000/svg" viewBox="0 0 448 512"><!--! Font Awesome Pro 6.0.0 by @fontawesome - https://fontawesome.com License - https://fontawesome.com/license (Commercial License) Copyright 2022 Fonticons, Inc. --><defs><style>.fa-secondary{opacity:.4}</style></defs><path class="fa-primary" d="M71.78 185.7C62.01 176.7 61.35 161.6 70.31 151.8C79.26 142 94.45 141.4 104.2 150.3L200.2 238.3C205.2 242.9 208 249.3 208 256C208 262.7 205.2 269.1 200.2 273.7L104.2 361.7C94.45 370.6 79.27 369.1 70.31 360.2C61.35 350.4 62.01 335.3 71.78 326.3L148.5 256L71.78 185.7zM360 336C373.3 336 384 346.7 384 360C384 373.3 373.3 384 360 384H216C202.7 384 192 373.3 192 360C192 346.7 202.7 336 216 336H360z"/><path class="fa-secondary" d="M0 96C0 60.65 28.65 32 64 32H384C419.3 32 448 60.65 448 96V416C448 451.3 419.3 480 384 480H64C28.65 480 0 451.3 0 416V96zM70.31 151.8C61.35 161.6 62.01 176.7 71.78 185.7L148.5 256L71.78 326.3C62.01 335.3 61.35 350.4 70.31 360.2C79.26 369.1 94.45 370.6 104.2 361.7L200.2 273.7C205.2 269.1 208 262.7 208 255.1C208 249.3 205.2 242.9 200.2 238.3L104.2 150.3C94.45 141.4 79.26 142 70.31 151.8V151.8zM216 336C202.7 336 192 346.7 192 360C192 373.3 202.7 384 216 384H360C373.3 384 384 373.3 384 360C384 346.7 373.3 336 360 336H216z"/></svg>
